X:12
T:GB/7e/12 Dolly Vardon Style 
%%VWML:GB-7e-12-0
F:http://www.vwml.org/record/GB/7e/12
C:Transcribed by Simon Furey and Lewis Jones
L:1/8
M:4/4
I:linebreak $
K:Gaeo
d | dddB d2 dB | cBcA F3 c | cccc c2 BA | GABc !fermata!d3 d |$ GABc d2 !fermata!gg |
fdBd !fermata!f2 GA | BGAF GABc | dcBA !fermata!G3 G |$ d2 d2 d2 d2 | cBcA F3 c | cccc c2 BA | GABc !fermata!d3 d |$ GABc d2 !fermata!gg | fdGd !fermata!f2 GA | BGAF GABc | dcBA !fermata! G3 |]

